X: 77
T: Jesu corona virginum
N: Derived from Mar2055-Jesu_corona_virginum.krn
C: Johannes Martini
%%abc-version 2.0
%%abcx-abcm2ps-target-version 5.9.1 (29 Sep 2008)
%%abc-creator hum2abc beta
%%abcx-conversion-date 2019/02/17 07:19:42
%%abc-edited-by Jesse Rodin
%%abc-edited-by Chris Gage 08-19-2014
%%abcx-initial-encoding-date 2014/10/05/
%%humdrum-veritas 1364345684
%%humdrum-veritas-data 3098707778
%%linebreak <none>
%%barnumbers 0
L: 1/4
M: 2/1
Q: 1/2=120
V: 1 clef=treble
V: 2 clef=treble-8
V: 3 clef=bass
K: C
[V:1] D4E4 | 
[V:2] z8 | 
[V:3] z8 | 
[V:1] F4F4 | 
[V:2] z8 | 
[V:3] z8 | 
[V:1] E4D2F2 | 
[V:2] z4d4 | 
[V:3] z8 | 
[V:1] G2E4DC | 
[V:2] e4f4 | 
[V:3] z8 | 
[V:1] D4E4 | 
[V:2] f4e4 | 
[V:3] z8 | 
[V:1] z8 | 
[V:2] d2f2g2e2- | 
[V:3] D,4E,4 | 
[V:1] z8 | 
[V:2] e2dcd4 | 
[V:3] F,4F,4 | 
[V:1] G4F4 | 
[V:2] e2c2d3c | 
[V:3] E,4z4 | 
[V:1] E2D3CD2 | 
[V:2] B4A3B | 
[V:3] G,4F,4 | 
[V:1] E2F2A4 | 
[V:2] c2d2f2e2- | 
[V:3] E,2D,4C,2 | 
[V:1] G2F4E2 | 
[V:2] e2dcB4 | 
[V:3] E,2F,2G,4 | 
[V:1] F4z4 | 
[V:2] c4c4 | 
[V:3] F,8 | 
[V:1] F4D4 | 
[V:2] A4B4 | 
[V:3] z8 | 
[V:1] E4F2A2- | 
[V:2] c4A4 | 
[V:3] z4F,4 | 
[V:1] A2GFGFED | 
[V:2] B4B4 | 
[V:3] D,4E,4 | 
[V:1] C2D2E2A,2- | 
[V:2] A4z4 | 
[V:3] F,4E,2F,2- | 
[V:1] A,B,CDE2F2- | 
[V:2] c4c2d2- | 
[V:3] F,G,A,4D,2 | 
[V:1] FED4^C2 | 
[V:2] dcBAG3F | 
[V:3] F,2G,2E,4 | 
[V:1] D4z4 | 
[V:2] A4A2B2- | 
[V:3] D,8 | 
[V:1] D4E4 | 
[V:2] Bcd4c2 | 
[V:3] z8 | 
[V:1] F4F4 | 
[V:2] d2cBA4 | 
[V:3] z4D,4 | 
[V:1] E2G2A2c2- | 
[V:2] z2e2d2c2 | 
[V:3] E,4F,4 | 
[V:1] cBA4^G2 | 
[V:2] A4B4 | 
[V:3] F,4E,4 | 
[V:1] A4z4 | 
[V:2] A4B4 | 
[V:3] z4G,4 | 
[V:1] z4G4 | 
[V:2] c2d2e4 | 
[V:3] A,2G,2E,4 | 
[V:1] A2G2E4 | 
[V:2] d2B4c2- | 
[V:3] F,2G,4A,2- | 
[V:1] F2G4F2- | 
[V:2] c2d2e2c2- | 
[V:3] A,2B,2C2A,2 | 
[V:1] F2E2F4 | 
[V:2] c2B2c4 | 
[V:3] G,4F,4 | 
[V:1] z8 | 
[V:2] c2d4B2- | 
[V:3] F,4D,4 | 
[V:1] z4F4 | 
[V:2] B2c4A2- | 
[V:3] E,4F,4 | 
[V:1] D4E4 | 
[V:2] A2G2B2c2 | 
[V:3] F,2G,3F,E,2 | 
[V:1] F4F2G2- | 
[V:2] d3cA2B2 | 
[V:3] D,2F,4E,D, | 
[V:1] GFE2D2F2- | 
[V:2] c4A4- | 
[V:3] C,4D,4 | 
[V:1] F2ED^C3B, | 
[V:2] A4G4 | 
[V:3] E,8 | 
[V:1] D8 |]  
[V:2] A8 |]  
[V:3] D,8 |]  



